outputs/icons/action/log_out_sharp.svg

<svg xmlns="http://www.w3.org/2000/svg" width="1200" height="1200" fill="none"><g fill="#000" clip-path="url(#a)"><path d="M600 250H250v700h350v100H150V150h450z"/><path d="m850 400 200 200-200 200V650H450V550h400z"/></g><defs><clipPath id="a"><path fill="#fff" d="M0 0h1200v1200H0z"/></clipPath></defs></svg>

<svg width="1200" height="1200" viewBox="0 0 1200 1200" fill="none" xmlns="http://www.w3.org/2000/svg"><g clip-path="url(#clip0_117_774)"><path fill-rule="evenodd" d="M600 250H250V950H600V1050H150V150H600V250ZM850 400L1050 600L850 800V650H450V550H850V400Z" fill="#1D1E23"/></g><defs><clipPath id="clip0_117_774"><path width="24" fill="white" d="M0 0H1200V1200H0V0z"/></clipPath></defs></svg>
